X: 203
T:Mrs Laing's Strathspey -- Fochabers
B:William Marshall's Scottish Airs, Melodies, Strathspeys, Reels &c (1822)
C:William Marshall
L:1/8
M:C|
O:Scotland
R:Strathspey
Z:Clark Bernst + Richard Robinson
%%Page:26 - 2
F:http://richardrobinson.tunebook.org.uk/tune/4046
%%TBL:{"version":1,"type":"tune","id":"4046"}
K:Eb
%%staves {1 2}
V:1
B, | \
~E2 (B>G) E/F/G/A/ B(G | E>!wedge!G)BB, CF-F!wedge!G | \
~E2 (B>G) E/F/G/A/ Be | ~d>e f/g/a/f/ ge-e :|
g | \
f/e/d/c/ B=A !=!~B>cBe | d/e/f/g/ a/g/f/e/ df-f.g | \
f/e/d/c/ B=A !=!~B>cBF | GB=Ac {Bc}dB-B.G |
Acce GBBe | ~F>G A/G/F/E/ DFFG | \
!f!EG,A,B, CDEB, | CEDF B,E-E |]
V:2 middle=d clef=bass
L:1/4
z/ | eeee | eGAB | eeee | BBee/ :| \
z/ | BfBB | deBB | BfBd | efBb | AaGg | AabB | eEAG| ABEE/ |]

